X:1
T:Title
%%score { ( 1 2 ) | ( 3 4 ) }
L:1/8
Q:1/4=100
M:4/4
K:Eb
V:1 treble nm="Grand Piano"
V:2 treble 
V:3 bass 
V:4 bass 
V:1
 z2 B2 z4 | G4 F4 | z4 z2 A2 | G6 z2 | G2 [FB]2 [EA]2 [B,EG]2 | [Ec]4 [=EB]4 | =A2 A2 G2 A2 | %7
 [DB]6 z2 | z2 _d2 z4 | [CGB]4 [CFA]4 | [B,DA]2 [Dc]2 [EB]2 [FA]2 | F4 z4 | %12
 [B,EG]2 [B,FB]2 [Fe]2 [Fd]2 | d2 c2 [DB]2 [FA]2 | [B,EG]2 FA .[B,EG]2 .[A,CF]2 | [G,E]6 z2 |] %16
V:2
 [B,EG]2 [EG]F A2 G2 | x8 | E2 c2 B2 z D | x8 | x8 | C2 z2 z2 C2 | x8 | z4 A,4 | %8
 B2 z G [CGc]2 [_DGB]2 | x8 | x8 | [B,G]6 z2 | x8 | z4 B,4 | z2 [CE]2 z4 | x8 |] %16
V:3
 E,2 z D [E,CE]2 [E,B,E]2 | [A,B,D]4 [A,B,D]4 | [G,B,]2 [F,A,D]2 [G,B,E]2 .[F,B,E]2 | [E,B,E]6 z2 | %4
 [E,B,E]2 [D,B,]2 [C,E,]2 B,,2 | z2 A,2 G,2 z2 | [F,CF]2 [F,CF]2 [F,B,=E]2 [F,C_E]2 | B,4 z4 | %8
 [E,G,E]2 [G,E]B, =E,2 E,2 | F,4 F,4 | B,,2 [B,,A,]2 [C,G,]2 F,B, | z4 E4 | %12
 E,2 D,2 [C,A,]2 [B,,B,]2 | [=A,E]2- [_G,A,E]2 =G,2 D,2 | E,2 A,,F,, z D z D | E,6 z2 |] %16
V:4
 z2 E,2 z4 | x8 | x8 | x8 | x8 | A,,4 C,4 | x8 | B,,6 z2 | z2 E,2 z4 | x8 | z4 z2 D,2 | E,6 z2 | %12
 x8 | F,2 z2 z4 | z4 B,,2 B,,2 | x8 |] %16

